X:1
T:Title
%%score ( 1 2 ) { 3 | 4 }
L:1/8
Q:1/4=107
M:4/4
K:Bb
V:1 treble nm="Grand Piano, Soprano"
V:2 treble 
V:3 bass nm="Choir Pad, Bass"
V:4 bass 
V:1
 [B,D]2 [B,D]>[CE] [DF]2 [EG]2 | [DF]4 [DB]4 | [DB]2 [FA]>[EG] [DF]2 [CE]2 | [B,D]8 | %4
w: By~Henry~Ernest~Nichol * * * *||||
 [B,D]2 [B,D]>[CE] [DF]2 [_DG]2 | F2- [EF]2 B2- [=EB]2 | [Fd]2 [Ec]>[DB] [Ec]2 [Ed]2 | [DB]8 | %8
w: ||||
 [DB]2 [DB]>[DB] [DA]2 [DG]2 | [DG]4 [D^F]4 | [DG]2 [DG]>[DG] [_DA]2 [DB]2 | [DA]8 | %12
w: ||||
 [DB]2 [Fc]>[FB] [FA]2 [FG]>[FA] | [FB]2 [Gc]2 [FA]2 F>F | [EG]2 [EG]>[EG] [EA]2 [FB]2 | d4 c2 z2 | %16
w: ||||
 [DB]2 [DB]>[DB] [DA]2 [DG]2 | G4 F4 | [DB]2 [DB]>B [DA]2 [DG]2 | A8 | %20
w: ||||
 [EAe]2 [EAe]>e [EAd]2 [EAc]2 | =B4 c4 | [Ed]2 [Dc]>B [CA]2 [C=EG]2 | F8 | %24
w: ||||
 [DB]2 [DB]>B [DA]2 [DG]2 | G4 z4 | [EG]2 [EG]>[EG] [FA]2 [F=B]2 | [Ec]4 [Fe]4 | %28
w: ||||
 [Fd]2 [Fc]>[Fc] [Ff]2 [FB]>[FB] | [FA]2 [EG]2 [Ge]2 [EG]>[EG] | D-[DG][DA][DB] [EAc]2 [EAd]2 | %31
w: |||
 [DFB]8 |] %32
w: |
V:2
 x8 | x8 | x8 | x8 | x8 | D2 z2 F2 z2 | x8 | x8 | x8 | x8 | x8 | x8 | x8 | x8 | x8 | A6 z2 | x8 | %17
 D2 D2 D2 D2 | x8 | E2 E2 E2 E2 | x8 | [EA]2 [EA]2 [EA]2 [EA]2 | x8 | C2 [A,C]2 [B,D]2 [A,E]2 | %24
 x8 | D2 D2 [DF]2 F2 | x8 | x8 | x8 | x8 | .F2 z2 z4 | x8 |] %32
V:3
 F,2 F,>F, B,2 B,2 | B,4 F,4 | B,2 B,>B, B,2 F,2 | F,8 | F,2 F,>F, B,2 B,2 | B,4 B,4 | %6
 B,2 F,>F, A,2 A,2 | B,8 | G,2 G,>G, A,2 B,2 | B,4 A,4 | B,2 B,>B, A,2 G,2 | ^F,8 | %12
 F,2 B,>B,[K:treble] C2 B,>C | D2 C2 C2 B,>B, | B,2 C>C C2 D2 | E6 z2 | B,2 B,2 B,2 B,2 | %17
 B,2 B,2 B,2 B,2 | B,2 B,2 B,2 B,2 | F,2 C2 C2 C2 | F,2 C2 A,2 C2 | F,2 A,2 C2 C2 | %22
 B,2 B,2 A,2 B,2 | F,6 F,2 | B,2 B,2 B,2 B,2 | B,2 B,2 B,2 B,2 | B,2 B,2[K:treble] C2 =B,2 | %27
 D4 E4 | B,2 C2[K:bass] B,2 D2 | E,2 B,2 E,2 B,2 | B,2 B,2 F,2 F,2 | B,8 |] %32
V:4
 B,,2 B,,>B,, B,,2 B,,2 | B,,4 B,,4 | B,,2 B,,>E, F,2 z2 | B,,8 | B,,2 B,,>B,, B,,2 B,,2 | %5
 B,,2 C,2 D,4 | B,,2 B,,>B,, F,2 F,2 | B,,8 | z4 G,2 G,2 | D,4 D,4 | D,2 D,>D, A,,2 A,,2 | D,8 | %12
 B,,2 D,>D, F,2 F,>F, | F,2 =E,2 F,2 D,>D, | E,2 C,>C, F,2 F,2 | F,6 z2 | %16
 [B,,D,F,]2 [B,,D,F,]2 [B,,F,]2 [B,,F,]2 | [B,,F,]2 [B,,F,]2 [B,,F,]2 [B,,F,]2 | %18
 [B,,D,F,]2 [B,,D,F,]2 [B,,D,F,]2 [B,,D,F,]2 | F,,2 [F,A,]2 [F,A,]2 [F,A,]2 | %20
 G,,2 [F,A,]2 F,2 [F,A,]2 | F,,2 F,2 [F,A,]2 [F,A,]2 | [B,,F,]2 [B,,F,]2 [B,,F,]2 [C,=E,]2 | %23
 F,,6 F,,2 | [B,,D,F,]2 [B,,D,F,]2 [B,,F,]2 [B,,F,]2 | [B,,F,]2 [B,,F,]2 [B,,F,]2 [B,,F,]2 | %26
 [E,G,]2 [E,G,]2 [E,F,A,]2 [D,F,G,]2 | [C,E,G,]4 [F,A,C]4 | [B,,D,F,]2 [F,A,]2 [B,,D,F,]2 [F,B,]2 | %29
 E,,2 [E,G,]2 E,,2 [E,G,]2 | F,2 F,2 [F,,C,]2 [F,,C,]2 | [B,,F,]8 |] %32

